dist/svg/file.svg

<!-- Generated by Trend Micro Style Portal -->
<svg version="1.1" xmlns="http://www.w3.org/2000/svg" width="16" height="16" viewBox="0 0 16 16">
  <title>file</title>
  <path fill="rgb(34,34,34)" d="M15 4h-4v-4l4 4zM10 0h-8c-0.5 0-1 0.5-1 1v14c0 0.5 0.5 1 1 1h12c0.5 0 1-0.5 1-1v-10h-5v-5z"></path>
</svg>

<svg width="16" height="16" viewBox="0 0 16 16" fill="rgb(34, 34, 34)" xmlns="http://www.w3.org/2000/svg"><title>file</title><path d="M15 4H11V0L15 4ZM10 0H2C1.5 0 1 0.5 1 1V15C1 15.5 1.5 16 2 16H14C14.5 16 15 15.5 15 15V5H10V0Z" fill="rgb(34, 34, 34)" fill-opacity="1.00"/></svg>
